findly-builder/apps/searchassist/src/assets/icons/landing/round-plus.svg

<svg width="26" height="26" viewBox="0 0 26 26" fill="none" xmlns="http://www.w3.org/2000/svg">
<circle cx="13" cy="13" r="13" fill="#0D6EFD"/>
<path d="M13.5853 7.02505C13.5586 6.73041 13.31 6.49953 13.0072 6.49953C12.6866 6.49953 12.4267 6.75837 12.4267 7.07768V12.2004L7.08038 12.198L7.02754 12.2004C6.7317 12.227 6.49988 12.4746 6.49988 12.7762C6.49988 13.0955 6.75978 13.3543 7.08038 13.3543L12.4267 13.3567V18.9214L12.4291 18.974C12.4558 19.2686 12.7044 19.4995 13.0072 19.4995C13.3278 19.4995 13.5877 19.2407 13.5877 18.9214V13.3567L18.9194 13.3591L18.9722 13.3567C19.2681 13.3302 19.4999 13.0825 19.4999 12.7809C19.4999 12.4616 19.24 12.2028 18.9194 12.2028L13.5877 12.2004L13.5877 7.07768L13.5853 7.02505Z" fill="#F3F8FF"/>
</svg>

<svg width="26" height="26" fill="none" xmlns="http://www.w3.org/2000/svg"><circle cx="13" cy="13" r="13" fill="#0D6EFD"/><path d="M13.585 7.025a.58.58 0 0 0-1.158.053V12.2l-5.347-.002-.052.002a.58.58 0 0 0 .052 1.154l5.347.003v5.564l.002.053a.58.58 0 0 0 1.159-.053v-5.564l5.331.002.053-.002a.579.579 0 0 0-.053-1.154l-5.331-.003V7.078l-.003-.053Z" fill="#F3F8FF"/></svg>
